packages/bezier-icons/icons/coin-recurring.svg

<svg width="24" height="24" viewBox="0 0 24 24" fill="none" xmlns="http://www.w3.org/2000/svg">
<path fill-rule="evenodd" clip-rule="evenodd" d="M21.5 9.25H15.873C15.428 9.25 15.205 8.711 15.52 8.396L17.613 6.303C16.106 4.819 14.117 4 12 4C7.9269 4 4.55468 7.0602 4.06194 11.002C3.99343 11.55 3.55228 12 3 12C2.44772 12 1.99474 11.551 2.04947 11.0014C2.55212 5.95447 6.82296 2 12 2C14.651 2 17.143 3.027 19.027 4.889L21.146 2.77C21.461 2.455 22 2.677 22 3.123V8.75C22 9.026 21.776 9.25 21.5 9.25ZM2.5 14.75H8.127C8.572 14.75 8.795 15.289 8.48 15.604L6.387 17.697C7.893 19.181 9.883 20 12 20C16.0731 20 19.4453 16.9398 19.9381 12.998C20.0066 12.45 20.4477 12 21 12C21.5523 12 22.0053 12.449 21.9505 12.9986C21.4479 18.0455 17.177 22 12 22C9.349 22 6.856 20.973 4.973 19.111L2.854 21.23C2.539 21.545 2 21.322 2 20.877V15.25C2 14.974 2.224 14.75 2.5 14.75ZM12.4919 10.9442L13.6069 11.3882C14.7109 11.8322 15.3699 12.5752 15.3699 13.8352C15.3699 15.0622 14.5099 16.1542 12.9999 16.5032V17.0002C12.9999 17.5525 12.5522 18.0002 11.9999 18.0002C11.4476 18.0002 10.9999 17.5525 10.9999 17.0002V16.5262C10.1439 16.3552 9.30088 15.9652 8.62988 15.3462L9.84088 13.8702C10.4769 14.4102 11.3039 14.7822 12.0119 14.7822C12.8039 14.7822 13.1749 14.4822 13.1749 14.0032C13.1749 13.5221 12.748 13.3435 12.0678 13.059C12.0184 13.0383 11.9678 13.0171 11.9159 12.9952L10.7769 12.5152C9.84088 12.1442 8.96588 11.3642 8.96588 10.0692C8.96588 8.91424 9.76788 7.94324 10.9999 7.55524V7.00024C10.9999 6.44796 11.4476 6.00024 11.9999 6.00024C12.5522 6.00024 12.9999 6.44796 12.9999 7.00024V7.44924C13.7729 7.59924 14.5259 7.96524 15.1069 8.54624L14.0389 9.88924C13.4509 9.44524 12.8989 9.20524 12.2039 9.20524C11.5439 9.20524 11.1359 9.46924 11.1359 9.94924C11.1359 10.4145 11.6402 10.6115 12.3647 10.8945C12.4064 10.9108 12.4488 10.9273 12.4919 10.9442Z" fill="#313234"/>
</svg>

<svg xmlns="http://www.w3.org/2000/svg" width="24" height="24" fill="none" viewBox="0 0 24 24"><path fill="#313234" fill-rule="evenodd" d="M21.5 9.25h-5.627a.5.5 0 0 1-.353-.854l2.093-2.093A7.95 7.95 0 0 0 12 4c-4.073 0-7.445 3.06-7.938 7.002C3.993 11.55 3.552 12 3 12s-1.005-.449-.95-.999C2.551 5.954 6.822 2 12 2a9.93 9.93 0 0 1 7.027 2.889l2.119-2.119a.5.5 0 0 1 .854.353V8.75a.5.5 0 0 1-.5.5m-19 5.5h5.627a.5.5 0 0 1 .353.854l-2.093 2.093A7.95 7.95 0 0 0 12 20c4.073 0 7.445-3.06 7.938-7.002.069-.548.51-.998 1.062-.998s1.005.449.95.999C21.449 18.046 17.178 22 12 22a9.93 9.93 0 0 1-7.027-2.889L2.854 21.23A.5.5 0 0 1 2 20.877V15.25a.5.5 0 0 1 .5-.5m9.992-3.806 1.115.444c1.104.444 1.763 1.187 1.763 2.447 0 1.227-.86 2.32-2.37 2.668V17a1 1 0 1 1-2 0v-.474c-.856-.17-1.7-.56-2.37-1.18l1.21-1.476c.637.54 1.464.912 2.172.912.792 0 1.163-.3 1.163-.779s-.427-.66-1.107-.944l-.152-.064-1.14-.48c-.935-.37-1.81-1.15-1.81-2.446 0-1.155.802-2.126 2.034-2.514V7a1 1 0 1 1 2 0v.45c.773.15 1.526.515 2.107 1.096L14.039 9.89c-.588-.444-1.14-.684-1.835-.684-.66 0-1.068.264-1.068.744 0 .466.504.662 1.229.946z" clip-rule="evenodd"/></svg>
